!!!!SEGMENT: pl-wtm--r-1227--018_lodwigowski-edward-stefan--zacni-sasiedzi.krn
!!!cenid: 18xx:1958
!!!COM: Łodwigowski, Edward Stefan
!!!COM-rismID: pe30111147
!!!CDT: 1815/08/14-1895/11/12
!!!CNT: Polish
!!!OTL: Zacni sąsiedzi
!!!PDT:
!!!AGN:
!!!SMS-siglum: PL-Wtm
!!!SMS-shelfmark: R 1227
!!!SMS-shelfwork: 018 W
!!!SMS-variant:
!!!SMS-altvar:
!!!NIFC-rismSourceID: 1001084127
!!!NIFC-islandoraID:
!!!URL-pdf-islandora:
!!!URL-scan:
!!!ONB-nifc: UWAGA: No. 90 („Wypił wypił a nie zostawił” osobno)
!!!AIN: 1 forte
!!!key:
**kern	**fing	**kern	**fing	**dynam
*part1	*part1	*part1	*part1	*part1
*staff2	*staff2	*staff1	*staff1	*
*>[A,A,B,B]	*>[A,A,B,B]	*>[A,A,B,B]	*>[A,A,B,B]	*>[A,A,B,B]
*>A	*>A	*>A	*>A	*>A
*Iforte	*	*Iforte	*	*
*I"Fortepian	*	*I"Fortepian	*	*
*clefF4	*	*clefG2	*	*
*k[f#c#g#]	*	*k[f#c#g#]	*	*
*A:	*	*A:	*	*
*M3/4	*	*M3/4	*	*
*all\right	*	*all\right	*	*
=1	=1	=1	=1	=1
*^	*	*	*	*
*2\right	*2\right	*below	*	*	*
!	!	!	!LO:TX:a:Bi:t=No 90.	!	!
!	!LO:N:vis=2	!	!LO:TX:a:i:t=Zacni sąsiedzi P. L. P.	!	!LO:DY:rj
2.A/	4A\	4	4ee 4cc#\	3 5	p
.	4e 4c#\	.	(4.cc# 4.a^\	.	.
.	4e 4c#\	.	.	.	.
.	.	.	8ee 8cc#\)	.	.
=2	=2	=2	=2	=2	=2
!	!LO:N:vis=2	!	!	!	!
2.E/	4E\	.	(8eeL 8cc#\	.	.
.	.	.	8ddJ 8b\)	.	.
.	4d 4G#\	.	2dd 2b\	3 5	.
.	4d 4G#\	.	.	.	.
=3	=3	=3	=3	=3	=3
!	!LO:N:vis=2	!	!	!	!
2.E/	4E\	.	8bL 8g#'\	2 3	.
.	.	.	8bJ 8g#'\	.	.
.	4d 4B\	.	(4.ee 4.g#\	5	.
.	4d 4B\	.	.	.	.
.	.	.	8dd 8b\)	3 5	.
=4	=4	=4	=4	=4	=4
*	*	*	*	*^	*
!	!LO:N:vis=2	!	!	!	!	!
2.A/	4A\	.	(8ddL 8b\	.	.	.
.	.	.	8cc#J 8a\)	.	.	.
.	4e 4c#\	.	2cc# 2a\	1 3	4 2	.
.	4e 4c#\	.	.	.	.	.
*	*	*	*	*v	*v	*
!!LO:LB:g=original
=5:|!|:	=5:|!|:	=5:|!|:	=5:|!|:	=5:|!|:	=5:|!|:
*>B	*>B	*>B	*>B	*>B	*>B
!	!LO:N:vis=2	!	!	!	!LO:HP:t=cres
2.E/	8E\L	.	8.ddL 8.b\	3 5	<
.	(>8B\	.	.	.	.
.	.	.	16ddJk 16b\	.	.
.	8G#\	.	4dd 4b'\	.	.
.	8B\	.	.	.	.
.	8G#\	.	4dd 4b'\	.	.
.	8B\J)	.	.	.	.
=6	=6	=6	=6	=6	=6
!	!LO:N:vis=2	!	!	!	!
2.E/	8E\L	.	8.cc#L 8.a\	2 4	.
.	(>8c#\	.	.	.	.
.	.	.	16cc#Jk 16a\	.	.
.	8A\	.	4cc# 4a'\	.	.
.	8c#\	.	.	.	.
.	8A\	.	4cc# 4a'\	.	.
.	8c#\J)	.	.	.	.
*v	*v	*	*	*	*
=7	=7	=7	=7	=7
*	*above	*	*	*
(8E\L	5	4dd 4b|\	.	.
!	!	!	!	!LO:HP:b=2
8G#\	3	.	.	<
*	*	*2\right	*	*
8B\	2	2b 2g#^\	2 3	.
8e\	1	.	.	.
8d\	2	.	.	.
8e\J	1	.	.	.
=8	=8	=8	=8	=8
8c#\L	3	2.ee 2.a^^\	1 5	[
8e\	1	.	.	.
!	!	!	!	!LO:HP:b=2
.	.	.	.	>
8f#\	2	.	.	.
8e\	1	.	.	.
8c#\	2	.	.	.
8A\J)	3	.	.	]]
=9	=9	=9	=9	=9
*^	*	*	*	*
!	!LO:N:vis=2	!	!	!	!
2E/	8E\L	.	8.ddL 8.b\	2 4	.
.	8B\	.	.	.	.
.	.	.	16ddJk 16b\	.	.
.	8G#\	.	4dd 4b'\	.	.
.	8B\	.	.	.	.
4ryy	8G# 8E#X\	.	4dd 4b'\	.	.
.	8B\J	.	.	.	.
=10	=10	=10	=10	=10	=10
!	!LO:N:vis=2	!	!	!	!
2F#/	8F#\L	.	8.cc#L 8.a\	1 3	.
.	8c#\	.	.	.	.
.	.	.	16cc#Jk 16a\	.	.
.	8A\	.	4cc# 4a\	.	.
.	8c#\	.	.	.	.
4ryy	8A 8E\	.	4cc# 4a\	1 4	.
.	8c#\J	.	.	.	.
!!LO:LB:g=original
=11	=11	=11	=11	=11	=11
4F#/	8D\L	.	4b 4a|\	1 3	.
.	8B\J	.	.	.	.
!	!LO:N:vis=2	!	!	!	!
2E/	8E\L	.	2ee 2g#^\	2 5	.
.	8d\	.	.	.	.
.	8B\	.	.	.	.
.	8d\J	.	.	.	.
*v	*v	*	*	*	*
=12	=12	=12	=12	=12
*	*	*^	*	*
8c#L 8A|\	.	[2a/	[2a\	1	.
8A\	1	.	.	.	.
8E\	2	.	.	.	.
8C#\J	3	.	.	.	.
8AA/	.	8a/]	8a\]	.	.
8r	.	8r	8ryy	.	.
*	*	*v	*v	*	*
=:|!	=:|!	=:|!	=:|!	=:|!
*-	*-	*-	*-	*-
!!!system-decoration: {p1}
!!!RDF**kern: > = above
!!!RDF**kern: < = below
!!!RDF**kern: | = vertical stroke
!!!ENC: Andrzej Kubiczek
!!!END: 2021-05-02
!!!ENC: Marcin Jachim
!!!END: 2021-04-17
!!!YEC: Copyright 2022 Narodowy Instytut Fryderyka Chopina (https://polishscores.org)
!!!YEM: Licence CC BY 4.0 (https://creativecommons.org/licenses/by/4.0)
